X:1
T:Alleluia (Wesley), 87.87 D
T:Alleluia (Wesley), 87.87 D
T:Samuel Sebastian Wesley, 1872
T:Public Domain Courtesy of the Cyber Hymnal™
C:Samuel Sebastian Wesley, 1872
Z:Public Domain
Z:Courtesy of the Cyber Hymnal™
%%score ( 1 2 ) ( 3 4 )
L:1/8
Q:1/4=115
M:4/4
K:F
V:1 treble 
V:2 treble 
V:3 bass 
V:4 bass 
V:1
 [CF]2 [CF]2 [G,E]2 [CF]2 | [B,D]2 C2 [=B,D]2 [_B,E]2 | [A,F]2 [CG]2 [FA]2 [Fc]2 | %3
 [Fd]2 [Fd]2 [Fc]4 | [Fc]2 (AG) F2 [CA]2 | [FA]2 [FB]2 [FA]2 [EG]2 | E2 [DG]2 [Gc]2 [^Fd]2 | %7
 [Ge]2 d2 [Ec]4 | [CF]2 [CF]2 [CE]2 [A,F]2 | [B,D]2 C2 [=B,D]2 [_B,E]2 | %10
 [A,F]2 [DG]2 [^CA]2 [A,E]2 | [=B,E]2 [B,E]2 [^CE]4 | [Cc]2 [EA]2 [DG]2 [DA]2 | %13
 [DB]2 ([GB][FA]) [FA]2 [EG]2 | [Fc]2 [Dd]2 B2 [FA]2 | [FG]2 [EG]2 F4 |] %16
V:2
 x8 | x2 C2 x4 | x8 | x8 | x2 E2 F2 x2 | x8 | E2 x6 | x2 (GF) x4 | x8 | x2 C2 x4 | x8 | x8 | x8 | %13
 x8 | x4 (DE) x2 | x4 F4 |] %16
V:3
 [F,A,]2 [F,A,]2 [F,B,]2 [F,A,]2 | [B,,F,]2 [A,,F,]2 [G,,F,]2 C,2 | [D,F,]2 [E,C]2 [F,C]2 [A,,C]2 | %3
 [B,,C]2 [D,B,]2 [F,A,]4 | [A,,C]2 (CB,) [D,A,]2 [E,C]2 | [F,C]2 [B,D]2 C2 C2 | %6
 C2 =B,2 [E,C]2 [A,C]2 | [G,C]2 [G,,=B,]2 [C,G,]4 | [F,A,]2 [F,A,]2 [C,G,]2 [D,F,]2 | %9
 [B,,F,]2 [A,,F,]2 [G,,F,]2 C,2 | [D,F,]2 (E,D,) [A,,E,]2 [^C,A,]2 | [E,A,]2 [E,^G,]2 [A,,A,]4 | %12
 [A,,E,]2 [C,A,]2 [D,B,]2 [D,^F,]2 | G,2 [B,D]2 C2 C2 | [A,C]2 [F,A,]2 [G,D]2 D2 | %15
 [B,,D]2 (CB,) [F,A,]4 |] %16
V:4
 x8 | x6 C,2 | x8 | x8 | x2 C,2 x4 | x4 C2 C2 | C2 (G,F,) x4 | x8 | x8 | x6 C,2 | x2 B,,2 x4 | x8 | %12
 x8 | G,2 C2 C2 x2 | x6 (D,C,) | x2 C,2 x4 |] %16

